X: 305634
M: 6/8
L: 1/8
K: Bb
[|\
[a3B3] ecA | FAc e2d | dfB Bed | cdB F2z |\
g2B ecA | FAc e2d | dfB Bed | cBA B2 H|]
dBF Fgf | fed e2c | cAF Ffe | dBc d2B |\


